!!!!SEGMENT: pl-cz--i-125--002_zeidler-jozef--requiem-dies-irae.krn
!!!id: 18xx:287
!!!COM: Zeidler, Józef
!!!COM-rism: pe30003401
!!!CDT: ~1744-1806
!!!CNT: Polish
!!!OTL: Requiem - Dies irae
!!!PDT:
!!!SMS-siglum: PL-CZ
!!!SMS-shelfmark: I-125
!!!NIFC-rismID:
!!!URL-scan: http://repozytorium.nifc.pl/skany/pl-cz-nut--i-125
!!!ONB-nifc:
**kern	**fb	**dynam	**kern	**dynam	**kern	**dynam	**kern	**text	**dynam	**kern	**text	**dynam	**kern	**text	**dynam	**kern	**text	**dynam	**kern	**dynam	**kern	**dynam
*part3	*	*part3	*part9	*part9	*part8	*part8	*part7	*part7	*part7	*part6	*part6	*part6	*part5	*part5	*part5	*part4	*part4	*part4	*part2	*part2	*part1	*part1
*staff3	*	*	*staff9	*	*staff8	*	*staff7	*staff7	*	*staff6	*staff6	*	*staff5	*staff5	*	*staff4	*staff4	*	*staff2	*	*staff1	*
*I"Organo	*	*	*I"Violino Secondo	*	*I"Violino Primo	*	*I"Basso	*	*	*I"Tenore	*	*	*I"Alto	*	*	*I"Soprano	*	*	*I"Clarinetto secondo	*	*I"Clarinetto primo	*
*I'Org.	*	*	*I'V-no II	*	*I'V-no I	*	*I'B.	*	*	*I'T.	*	*	*I'A.	*	*	*I'S.	*	*	*I'Cl II	*	*I'Cl I	*
*clefF4	*	*	*clefG2	*	*clefG2	*	*clefF4	*	*	*clefC4	*	*	*clefC3	*	*	*clefC1	*	*	*clefG2	*	*clefG2	*
*	*	*	*	*	*	*	*	*	*	*	*	*	*	*	*	*	*	*	*ITrd1c2	*	*ITrd1c2	*
*k[b-e-a-]	*	*	*k[b-e-a-]	*	*k[b-e-a-]	*	*k[b-e-a-]	*	*	*k[b-e-a-]	*	*	*k[b-e-a-]	*	*	*k[b-e-a-]	*	*	*k[b-e-a-]	*	*k[b-e-a-]	*
*M3/4	*	*	*M3/4	*	*M3/4	*	*M3/4	*	*	*M3/4	*	*	*M3/4	*	*	*M3/4	*	*	*M3/4	*	*M3/4	*
=1	=1	=1	=1	=1	=1	=1	=1	=1	=1	=1	=1	=1	=1	=1	=1	=1	=1	=1	=1	=1	=1	=1
!LO:TX:a:t=Adagio	!	!	!LO:TX:a:t=Adagio	!	!LO:TX:a:t=Adagio	!	!LO:TX:a:t=Adagio	!	!	!LO:TX:a:t=Adagio	!	!	!LO:TX:a:t=Adagio	!	!	!LO:TX:a:t=Adagio	!	!	!LO:TX:a:t=Adagio	!	!LO:TX:a:t=Adagio	!
!	!	!	!	!	!	!	!LO:TX:a:t=2	!	!	!	!	!	!	!	!	!LO:TX:a:t=2	!	!	!	!	!LO:TX:a:t=2	!
4C\	.	p	8g/L	p	8ee-\L	p	2.r	.	.	4e-\	Di-	.	(4g\	Di-	.	2.r	.	.	2.r	.	2.r	.
.	.	.	8g/	.	8ee-\	.	.	.	.	.	.	.	.	.	.	.	.	.	.	.	.	.
4F\	6	.	8f/	.	8dd\	.	.	.	.	4d\	.	.	4f\	.	.	.	.	.	.	.	.	.
.	.	.	8f/	.	8dd\	.	.	.	.	.	.	.	.	.	.	.	.	.	.	.	.	.
4F#X\	7	.	8e-/	.	8cc\	.	.	.	.	4c\	-es-	.	4e-\)	-es-	.	.	.	.	.	.	.	.
.	.	.	8e-/J	.	8cc\J	.	.	.	.	.	.	.	.	.	.	.	.	.	.	.	.	.
=2	=2	=2	=2	=2	=2	=2	=2	=2	=2	=2	=2	=2	=2	=2	=2	=2	=2	=2	=2	=2	=2	=2
!	!	!	!	!	!	!	!	!	!	!	!	!	!	!	!	!	!	!	!LO:TX:a:t=problem:[W nutach brak wyraźnego zapisu dotyczącego dwóch pauz rozpoczynających utwór w partii Clarinetto secondo}	!	!	!
4G\	7 3n	.	(8.d/L	.	(8.bn\L	.	2.ryy	.	.	8.Bn\L	-i-	.	8.d\L	-i-	.	2.ryy	.	.	2.r	.	2.ryy	.
.	.	.	32e-/LL	.	32cc\LL	.	.	.	.	(32c\LL	.	.	32e-\LL	.	.	.	.	.	.	.	.	.
.	.	.	32f/JJJ)	.	32dd\JJJ)	.	.	.	.	32d\JJJ)	.	.	32f\JJJ	.	.	.	.	.	.	.	.	.
4C/	.	.	4e-/	.	(8cc\L	.	.	.	.	4c\	-re	.	4e-\	-re	.	.	.	.	.	.	.	.
.	.	.	.	.	16cc\L	.	.	.	.	.	.	.	.	.	.	.	.	.	.	.	.	.
.	.	.	.	.	16b\JJ)	.	.	.	.	.	.	.	.	.	.	.	.	.	.	.	.	.
4r	.	.	(16cc\LL	.	(16cc\LL	.	.	.	.	4r	.	.	4r	.	.	.	.	.	.	.	.	.
.	.	.	16bn\	.	16dd\	.	.	.	.	.	.	.	.	.	.	.	.	.	.	.	.	.
.	.	.	16cc\	.	16ee-\	.	.	.	.	.	.	.	.	.	.	.	.	.	.	.	.	.
.	.	.	16dd\JJ)	.	16ff\JJ)	.	.	.	.	.	.	.	.	.	.	.	.	.	.	.	.	.
=3	=3	=3	=3	=3	=3	=3	=3	=3	=3	=3	=3	=3	=3	=3	=3	=3	=3	=3	=3	=3	=3	=3
!	!	!	!	!	!	!	!	!	!	!LO:TX:a:t=2	!	!	!LO:TX:a:t=2	!	!	!	!	!LO:DY:b	!	!	!	!
4C\	.	.	8ee-\	.	8aa-\	.	(4e-\	Di-	.	2.r	.	.	2.r	.	.	(4gg\	Di-	p	8ee-\L	p	8gg\L	p
.	.	.	8r	.	8r	.	.	.	.	.	.	.	.	.	.	.	.	.	8ee-\	.	8gg\	.
4D\	6|	.	8dd\	.	8ff\	.	4d\	.	.	.	.	.	.	.	.	4ff\	.	.	8dd\	.	8ff\	.
.	.	.	8r	.	8r	.	.	.	.	.	.	.	.	.	.	.	.	.	8dd\	.	8ff\	.
8E-\L	7 6	.	8cc\	.	8ee-\	.	4c\)	-es-	.	.	.	.	.	.	.	4ee-\)	-es-	.	8cc\	.	8ee-\	.
8F\J	.	.	8r	.	8r	.	.	.	.	.	.	.	.	.	.	.	.	.	8cc\J	.	8ee-\J	.
=4	=4	=4	=4	=4	=4	=4	=4	=4	=4	=4	=4	=4	=4	=4	=4	=4	=4	=4	=4	=4	=4	=4
!	!	!	!	!	!	!	!	!	!	!	!	!	!	!	!	!	!	!	!	!	!LO:N:vis=8.	!
4Gn\	7 3	.	4bn\	.	4dd\	.	(8.Bn\L	-il-	.	2.ryy	.	.	2.ryy	.	.	(8.dd\L	-il-	.	(8bX\L	.	(8dd\L	.
.	.	.	.	.	.	.	.	.	.	.	.	.	.	.	.	.	.	.	16cc\L	.	16ee-\L	.
.	.	.	.	.	.	.	32c\LL	.	.	.	.	.	.	.	.	32ee-\LL	.	.	16dd\JJ)	.	16ff\JJ)	.
.	.	.	.	.	.	.	32d\JJJ)	.	.	.	.	.	.	.	.	32ff\JJJ)	.	.	.	.	.	.
4C/	.	.	4cc\	.	4ee-\	.	4c\	-la-	.	.	.	.	.	.	.	4ee-\	-la-	.	8cc\L	.	8ee-\L	.
.	.	.	.	.	.	.	.	.	.	.	.	.	.	.	.	.	.	.	8ee-\J	.	8gg\J	.
4r	.	.	4r	.	4r	.	4r	.	.	.	.	.	.	.	.	4r	.	.	4cc\	.	4ee-\	.
=5	=5	=5	=5	=5	=5	=5	=5	=5	=5	=5	=5	=5	=5	=5	=5	=5	=5	=5	=5	=5	=5	=5
!	!	!	!	!	!	!	!	!	!	!	!	!	!	!	!	!	!	!	!LO:TX:a:t=3	!	!LO:TX:a:t=3	!
4c\	5	.	8r	.	8r	.	2C/	tes-	.	2c\	tes-	.	2g\	sol-	.	2ee-\	Sol-	.	0r	.	0r	.
.	.	.	8g/L	.	8ee-'\L	.	.	.	.	.	.	.	.	.	.	.	.	.	.	.	.	.
4C/	.	.	8g/	.	8ee-'\	.	.	.	.	.	.	.	.	.	.	.	.	.	.	.	.	.
.	.	.	8g/	.	8ee-'\	.	.	.	.	.	.	.	.	.	.	.	.	.	.	.	.	.
4G\	6 5-	.	8b-/	.	(8ee-\	.	4G\	-ta-	.	4e-\	-ta-	.	4b-\	-vet-	.	8ee-\L	-vet-	.	.	.	.	.
.	.	.	8b-/J	.	8dd-X\J)	.	.	.	.	.	.	.	.	.	.	8dd-X\J	.	.	.	.	.	.
=6	=6	=6	=6	=6	=6	=6	=6	=6	=6	=6	=6	=6	=6	=6	=6	=6	=6	=6	=6	=6	=6	=6
4A-\	.	.	4e-/	.	(8dd\L	.	4A-\	-da-	.	4e-\	-da-	.	8b-\L	-sae-	.	(8dd\L	-sae-	.	.	.	.	.
.	.	.	.	.	8cc\J)	.	.	.	.	.	.	.	8a-\J	.	.	8cc\J)	.	.	.	.	.	.
*	*	*	*	*	*2\right	*	*	*	*	*	*	*	*	*	*	*	*	*	*	*	*	*
8A-\L	.	.	2e-/	.	2cc\	.	2A-\	-vit-	.	2e-\	-vit-	.	2a-\	-clum-	.	2cc\	-clum-	.	.	.	.	.
8G\	.	.	.	.	.	.	.	.	.	.	.	.	.	.	.	.	.	.	.	.	.	.
8A-\	.	.	.	.	.	.	.	.	.	.	.	.	.	.	.	.	.	.	.	.	.	.
8G\J	.	.	.	.	.	.	.	.	.	.	.	.	.	.	.	.	.	.	.	.	.	.
=7	=7	=7	=7	=7	=7	=7	=7	=7	=7	=7	=7	=7	=7	=7	=7	=7	=7	=7	=7	=7	=7	=7
!LO:LB:g=original	!	!	!	!	!	!	!	!	!	!	!	!	!	!	!	!	!	!	!	!	!	!
4F\	6|	.	8a-/L	.	(8cc\L	.	2A-\	-cum-	.	2c\	-cum-	.	2a-\	-in-	.	(4cc\	-in-	.	.	.	.	.
.	.	.	8b-/J	.	8een\	.	.	.	.	.	.	.	.	.	.	.	.	.	.	.	.	.
4r	.	.	4cc\	.	8ff\	.	.	.	.	.	.	.	.	.	.	4.ff\)	.	.	.	.	.	.
.	.	.	.	.	8aa-\	.	.	.	.	.	.	.	.	.	.	.	.	.	.	.	.	.
!	!	!	!	!	!	!	!	!	!	!	!	!	!	!	!	!	!	!	!LO:N:vis=2	!	!LO:N:vis=2	!
8A-\L	6	.	4cc\	.	8ff\	.	8A-\L	-sy-	.	4c\	-sy-	.	4f\	-fa-	.	.	.	.	4r	.	4r	.
8An\J	5	.	.	.	8ee-X\J)	.	8An\J	.	.	.	.	.	.	.	.	8ee-\	fa-	.	.	.	.	.
=8	=8	=8	=8	=8	=8	=8	=8	=8	=8	=8	=8	=8	=8	=8	=8	=8	=8	=8	=8	=8	=8	=8
!	!	!	!	!	!	!	!	!	!	!	!	!	!	!	!	!LO:LB:g=original	!	!	!	!	!	!
4B-\	4	.	4f/	.	(8ee-\L	.	4B-\	-bi-	.	4B-\	-bil-	.	4f\	-vil-	.	8ee-\L	-vi-	.	4r	.	4r	.
.	3	.	.	.	8dd\J)	.	.	.	.	.	.	.	.	.	.	8dd\J	.	.	.	.	.	.
!LO:TX:a:t=problem:mixed beam	!	!	!	!	!	!	!	!	!	!	!	!	!	!	!	!	!	!	!	!	!	!
8BB-/L	.	.	4f/	.	4dd\	.	4BB-/	-la	.	4B-\	-la-	.	4f\	-la-	.	4dd\	-la	.	8r	.	8r	.
8A-'\	.	.	.	.	.	.	.	.	.	.	.	.	.	.	.	.	.	.	8dd\L	.	(8ff\L	.
8G'\	.	.	4r	.	4r	.	4r	.	.	4r	.	.	4r	.	.	4r	.	.	8ee-\	.	8gg\	.
8F'\J	.	.	.	.	.	.	.	.	.	.	.	.	.	.	.	.	.	.	8ff\J	.	8aa-\J)	.
=9	=9	=9	=9	=9	=9	=9	=9	=9	=9	=9	=9	=9	=9	=9	=9	=9	=9	=9	=9	=9	=9	=9
!	!	!	!LO:TX:a:t=1	!	!	!	!	!	!	!	!	!	!	!	!	!LO:TX:a:t=1	!	!	!	!	!	!
4E-\	.	.	2.r	.	2.r	.	2.r	.	.	2e-\	-Quan-	.	2g\	-Quan-	.	2.r	.	.	(8ee-\L	.	(8gg\L	.
.	.	.	.	.	.	.	.	.	.	.	.	.	.	.	.	.	.	.	8e-/)	.	8ee-\)	.
4EE-/	.	.	.	.	.	.	.	.	.	.	.	.	.	.	.	.	.	.	8e-`/	.	8ee-`\	.
.	.	.	.	.	.	.	.	.	.	.	.	.	.	.	.	.	.	.	(8e-/	.	(8ee-\	.
4r	.	.	.	.	.	.	.	.	.	8g\L	-tus-	.	8b-\L	-tus-	.	.	.	.	8g/	.	8gg\	.
.	.	.	.	.	.	.	.	.	.	8e-\J	.	.	8g\J	.	.	.	.	.	8e-/J)	.	8ee-\J)	.
=10	=10	=10	=10	=10	=10	=10	=10	=10	=10	=10	=10	=10	=10	=10	=10	=10	=10	=10	=10	=10	=10	=10
!	!	!	!	!	!	!	!LO:LB:g=original	!	!	!LO:LB:g=original	!	!	!LO:LB:g=original	!	!	!	!	!	!	!	!	!
4B-\	7	.	8r	.	8r	p	2A-\	est	.	8e-\L	-tre-	.	8g\L	-tre-	.	2ff\	est-	.	(8g/L	.	8ee-\L	.
.	.	.	8a-'/L	.	8ff'\L	.	.	.	.	8d\J	.	.	8f\J	.	.	.	.	.	8f/J)	.	8dd\J	.
4BB-/	.	.	8a-'/	.	8ff'\	.	.	.	.	4d\	-mor-	.	4f\	-mor-	.	.	.	.	4f/	.	4dd\	.
.	.	.	8a-'/	.	8ff'\	.	.	.	.	.	.	.	.	.	.	.	.	.	.	.	.	.
4r	.	.	(8cc/	.	(8aa-\	.	8c\L	-fu-	.	4r	.	.	4r	.	.	8aa-\L	-fu-	.	4r	.	4r	.
.	.	.	8a-/J)	.	8ff\J)	.	8A-\J	.	.	.	.	.	.	.	.	8ff\J	.	.	.	.	.	.
=11	=11	=11	=11	=11	=11	=11	=11	=11	=11	=11	=11	=11	=11	=11	=11	=11	=11	=11	=11	=11	=11	=11
!	!	!	!	!	!LO:LB:g=original	!	!	!	!	!	!	!	!	!	!	!	!	!	!LO:LB:g=original	!	!LO:LB:g=original	!
!	!	!	!	!	!	!	!	!	!	!	!	!	!	!	!	!	!	!	!	!	!LO:TX:a:t=Dies ire	!
4E-\	.	.	8a-/L	.	(8ff\L	.	(8A-\L	-tu-	.	2e-\	-quan-	.	2g\	-quan-	.	8ff\L	-tu-	.	8r	.	8r	.
.	.	.	8g/J	.	8ee-\J)	.	8G\J)	.	.	.	.	.	.	.	.	8ee-\J	.	.	8g`/L	.	8ee-\L	.
4EE-/	.	.	4g/	.	4ee-\	.	4G\	-rus-	.	.	.	.	.	.	.	4ee-\	-rus-	.	8g`/	.	8ee-\	.
.	.	.	.	.	.	.	.	.	.	.	.	.	.	.	.	.	.	.	(8g/	.	8ee-\	.
4r	.	.	4r	.	4r	.	4r	.	.	8g\L	-do	.	8b-\L	-do	.	4r	.	.	8b-/	.	8gg\	.
.	.	.	.	.	.	.	.	.	.	8e-\J	.	.	8g\J	.	.	.	.	.	8g/J)	.	8ee-\J	.
=12	=12	=12	=12	=12	=12	=12	=12	=12	=12	=12	=12	=12	=12	=12	=12	=12	=12	=12	=12	=12	=12	=12
4B-\	7	.	8r	.	8r	.	2A-\	-est-	.	(8e-\L	ju-	.	8g\L	ju-	.	2ff\	-est-	.	(8g/L	.	(8ee-\L	.
.	.	.	8a-'/L	.	8ff'\L	.	.	.	.	8d\J)	.	.	8f\J	.	.	.	.	.	8f/J)	.	8dd\J)	.
4BB-/	.	.	8a-'/	.	8ff'\	.	.	.	.	4d\	-dex-	.	4f\	-dex-	.	.	.	.	4f/	.	4dd\	.
.	.	.	8a-'/	.	8ff'\	.	.	.	.	.	.	.	.	.	.	.	.	.	.	.	.	.
4r	.	.	(8cc/	.	(8aa-\	.	(8c\L	-ven-	.	4r	.	.	4r	.	.	8aa-\L	-ven-	.	4r	.	4r	.
.	.	.	8a-/J)	.	8ff\J)	.	8A-\J)	.	.	.	.	.	.	.	.	8ff\J	.	.	.	.	.	.
=13	=13	=13	=13	=13	=13	=13	=13	=13	=13	=13	=13	=13	=13	=13	=13	=13	=13	=13	=13	=13	=13	=13
!	!	!	!LO:LB:g=original	!	!	!	!	!	!	!	!	!	!	!	!	!	!	!	!	!	!LO:TX:a:t=1	!
4E-\	.	.	(8a-/L	.	(8ff\L	.	(8A-\L	-tu-	.	2.r	.	.	2.r	.	.	8ff\L	-tu-	.	2.r	.	2.r	.
.	.	.	8g/J)	.	8ee-\J)	.	8G\J)	.	.	.	.	.	.	.	.	8ee-\J	.	.	.	.	.	.
4EE-/	.	.	8g/L	.	8ee-\L	.	4G\	-rus	.	.	.	.	.	.	.	4ee-\	-rus	.	.	.	.	.
.	.	.	16a-/L	.	16ff\L	.	.	.	.	.	.	.	.	.	.	.	.	.	.	.	.	.
.	.	.	16g/JJ	.	16ee-\JJ	.	.	.	.	.	.	.	.	.	.	.	.	.	.	.	.	.
4r	.	.	(16e-/LL	.	(16ee-\LL	.	4r	.	.	.	.	.	.	.	.	4r	.	.	.	.	.	.
.	.	.	16d/	.	16ff\	.	.	.	.	.	.	.	.	.	.	.	.	.	.	.	.	.
.	.	.	16e-/	.	16gg\	.	.	.	.	.	.	.	.	.	.	.	.	.	.	.	.	.
.	.	.	16f/JJ)	.	16aa-\JJ)	.	.	.	.	.	.	.	.	.	.	.	.	.	.	.	.	.
=14	=14	=14	=14	=14	=14	=14	=14	=14	=14	=14	=14	=14	=14	=14	=14	=14	=14	=14	=14	=14	=14	=14
*	*	*	*^	*	*	*	*	*	*	*	*	*	*	*	*	*	*	*	*	*	*	*
*	*	*	*	*tremolo	*	*	*	*	*	*	*	*	*	*	*	*	*	*	*	*	*	*	*
*	*	*	*	*2\right	*	*	*	*	*	*	*	*	*	*	*	*	*	*	*	*	*	*	*
!	!	!	!	!LO:TX:a:t=problem:tremolo o wartości połnuty na środku grupy	!	!	!	!	!	!	!	!	!	!	!	!	!	!	!	!	!	!	!
4G\	6	.	8g/L	8e-\L	.	8bb-\	.	2G\	-cun-	.	2e-\	-cun-	.	2b-\	-cun-	.	2dd-X\	-cun-	.	4r	.	4r	.
.	.	.	8b-/	8e-\	.	4dd-X\	.	.	.	.	.	.	.	.	.	.	.	.	.	.	.	.	.
4G\	5-	.	8b-/	8e-\	.	.	.	.	.	.	.	.	.	.	.	.	.	.	.	4dd-\	.	4bb-\	.
.	.	.	8b-/	8e-\	.	16cc\LL	.	.	.	.	.	.	.	.	.	.	.	.	.	.	.	.	.
.	.	.	.	.	.	16dd-\JJ	.	.	.	.	.	.	.	.	.	.	.	.	.	.	.	.	.
4G\	.	.	8b-/	8e-\	.	(16ee-\LL	.	4G\	-cta-	.	4e-\	-cta-	.	4b-\	-cta-	.	4dd-\	-cta-	.	4dd-\	.	4bb-\	.
.	.	.	.	.	.	16dd-\	.	.	.	.	.	.	.	.	.	.	.	.	.	.	.	.	.
.	.	.	8b-/J	8e-\J	.	16cc\	.	.	.	.	.	.	.	.	.	.	.	.	.	.	.	.	.
.	.	.	.	.	.	16dd-\JJ)	.	.	.	.	.	.	.	.	.	.	.	.	.	.	.	.	.
=15	=15	=15	=15	=15	=15	=15	=15	=15	=15	=15	=15	=15	=15	=15	=15	=15	=15	=15	=15	=15	=15	=15	=15
*	*	*	*Xtremolo	*tremolo	*	*	*	*	*	*	*	*	*	*	*	*	*	*	*	*	*	*	*
4A-\	.	.	8r	8A-\L	.	(8dd\L	.	4A-\	-stric-	.	4e-\	-stric-	.	8b-\L	-stric-	.	8dd\L	-stric-	.	(8dd\L	.	(8bb-\L	.
.	.	.	8e-/L	8A-\	.	8cc\J)	.	.	.	.	.	.	.	8a-\J	.	.	8cc\J	.	.	8cc\J)	.	8aa-\J)	.
*	*	*	*	*	*	*	*	*	*	*	*	*	*	*	*	*	*	*	*	*2\right	*	*2\right	*
4A-\	.	.	8e-/	8A-\	.	4.cc\	.	2A-\	-te-	.	2e-\	-te-	.	2a-\	-te-	.	2cc\	-te-	.	2cc\	.	2aa-\	.
.	.	.	8e-/	8A-\	.	.	.	.	.	.	.	.	.	.	.	.	.	.	.	.	.	.	.
4A-\	.	.	8e-/	8A-\	.	.	.	.	.	.	.	.	.	.	.	.	.	.	.	.	.	.	.
.	.	.	8e-/J	8A-\J	.	8aa-\	.	.	.	.	.	.	.	.	.	.	.	.	.	.	.	.	.
=16	=16	=16	=16	=16	=16	=16	=16	=16	=16	=16	=16	=16	=16	=16	=16	=16	=16	=16	=16	=16	=16	=16	=16
!LO:LB:g=original	!	!	!	!	!	!	!	!	!	!	!	!	!	!	!	!	!	!	!	!	!	!	!
*	*	*	*Xtremolo	*tremolo	*	*	*	*	*	*	*	*	*	*	*	*	*	*	*	*	*	*	*
4En\	6 5	.	8r	8c\L	.	8gg\	.	2En\	{-cun-	.	2c\	-cun-	.	2g\	-cun-	.	2b-\	-cun-	.	4r	.	4r	.
.	.	.	8g/L	8c\	.	4b-\	.	.	.	.	.	.	.	.	.	.	.	.	.	.	.	.	.
4E\	.	.	8g/	8c\	.	.	.	.	.	.	.	.	.	.	.	.	.	.	.	4b-\	.	4gg\	.
.	.	.	8g/	8c\	.	16a-\LL	.	.	.	.	.	.	.	.	.	.	.	.	.	.	.	.	.
.	.	.	.	.	.	16b-\JJ	.	.	.	.	.	.	.	.	.	.	.	.	.	.	.	.	.
4E\	.	.	8g/	8c\	.	(16cc\LL	.	4E\	-cta-	.	4c\	-cta-	.	4g\	-cta-	.	4b-\	-cta-	.	4b-\	.	4gg\	.
.	.	.	.	.	.	16b-\	.	.	.	.	.	.	.	.	.	.	.	.	.	.	.	.	.
.	.	.	8g/J	8c\J	.	16a-\	.	.	.	.	.	.	.	.	.	.	.	.	.	.	.	.	.
.	.	.	.	.	.	16b-\JJ)	.	.	.	.	.	.	.	.	.	.	.	.	.	.	.	.	.
*	*	*	*Xtuplet	*Xtremolo	*	*	*	*	*	*	*	*	*	*	*	*	*	*	*	*	*	*	*
*	*	*	*v	*v	*	*	*	*	*	*	*	*	*	*	*	*	*	*	*	*	*	*	*
=17	=17	=17	=17	=17	=17	=17	=17	=17	=17	=17	=17	=17	=17	=17	=17	=17	=17	=17	=17	=17	=17	=17
!	!	!	!	!	!	!	!	!	!	!	!	!	!	!	!	!LO:LB:g=original	!	!	!	!	!	!
4F\	.	.	8g/L	.	8b-\L	.	4F\	-stri-	.	4c\	-stri-	.	8g\L	-stri-	.	8b-\L	-stri-	.	(8b-\L	.	(8gg\L	.
.	.	.	8f/J	.	8a-\J	.	.	.	.	.	.	.	8f\J	.	.	8a-\J	.	.	8a-\J)	.	8ff\J)	.
4F\	.	.	4r	.	2a-/	.	2F\	-cte-}	.	2c\	-cte-	.	2f\	-cte-	.	2a-\	-cte-	.	2a-\	.	2ff\	.
4E-X\	4 2	.	12f/L	.	.	.	.	.	.	.	.	.	.	.	.	.	.	.	.	.	.	.
.	.	.	12f/	.	.	.	.	.	.	.	.	.	.	.	.	.	.	.	.	.	.	.
.	.	.	12f/J	.	.	.	.	.	.	.	.	.	.	.	.	.	.	.	.	.	.	.
=18	=18	=18	=18	=18	=18	=18	=18	=18	=18	=18	=18	=18	=18	=18	=18	=18	=18	=18	=18	=18	=18	=18
4D\	5	.	4d/ 4b-	.	4ff\	.	2D/	-dis-	.	2B-\	-Dis-	.	2d\	-Dis-	.	2ff\	-Dis-	.	2b-\	.	2ff\	.
4D\	.	.	(16dd\LL	.	(16ff\LL	.	.	.	.	.	.	.	.	.	.	.	.	.	.	.	.	.
.	.	.	16cc\	.	16ee-\	.	.	.	.	.	.	.	.	.	.	.	.	.	.	.	.	.
.	.	.	16b-\	.	16dd\	.	.	.	.	.	.	.	.	.	.	.	.	.	.	.	.	.
.	.	.	16a-\JJ)	.	16cc\JJ)	.	.	.	.	.	.	.	.	.	.	.	.	.	.	.	.	.
4BB-/	7	.	(16g/LL	.	16b-/LL	.	4BB-/	-cus-	.	4d\	-cus-	.	4f\	-cus-	.	4a-\	-cus-	.	4dd\	.	4ff\	.
.	.	.	16f/	.	16a-/	.	.	.	.	.	.	.	.	.	.	.	.	.	.	.	.	.
.	.	.	16e-/	.	16g/	.	.	.	.	.	.	.	.	.	.	.	.	.	.	.	.	.
.	.	.	16f/JJ)	.	16a-/JJ	.	.	.	.	.	.	.	.	.	.	.	.	.	.	.	.	.
=19	=19	=19	=19	=19	=19	=19	=19	=19	=19	=19	=19	=19	=19	=19	=19	=19	=19	=19	=19	=19	=19	=19
!	!	!	!	!	!LO:TX:a:t=problem:mixed beam	!	!	!	!	!	!	!	!LO:LB:g=original	!	!	!	!	!	!	!	!	!
4E-\	.	.	8e-/L	.	8g/L	.	2E-\	-su-	.	2e-\	-su-	.	2.e-\	-su-	.	2.g\	-su-	.	4.ee-\	.	4.gg\	.
.	.	.	16g/L	.	16ee-\L	.	.	.	.	.	.	.	.	.	.	.	.	.	.	.	.	.
.	.	.	16f/JJ	.	16dd\JJ	.	.	.	.	.	.	.	.	.	.	.	.	.	.	.	.	.
!	!	!	!	!	!LO:LB:g=original	!	!	!	!	!	!	!	!	!	!	!	!	!	!	!	!	!
4E-\	.	.	16g/LL	.	(16ee-\LL	.	.	.	.	.	.	.	.	.	.	.	.	.	.	.	.	.
.	.	.	16f/	.	16dd\	.	.	.	.	.	.	.	.	.	.	.	.	.	.	.	.	.
.	.	.	16g/	.	16ee-\	.	.	.	.	.	.	.	.	.	.	.	.	.	8ee-\L	.	8gg\L	.
.	.	.	16f/JJ	.	16dd\JJ)	.	.	.	.	.	.	.	.	.	.	.	.	.	.	.	.	.
!	!	!	!	!	!LO:TX:a:t=problem:mixed beam	!	!	!	!	!	!	!	!	!	!	!	!	!	!	!	!	!
4AAn/	7	.	8g/L	.	8ee-\L	.	4AAn/	.	.	4c\	.	.	.	.	.	.	.	.	8ee-\	.	8gg\	.
.	.	.	8e-/J	.	8g/J	.	.	.	.	.	.	.	.	.	.	.	.	.	8ee-\J	.	8gg\J	.
=20	=20	=20	=20	=20	=20	=20	=20	=20	=20	=20	=20	=20	=20	=20	=20	=20	=20	=20	=20	=20	=20	=20
!	!	!	!	!LO:HP:t=for	!	!	!LO:LB:g=original	!	!	!LO:TX:a:t=problem:dynamika w na 2gim polu pięciolinii	!	!	!	!	!	!	!	!	!	!	!LO:TX:a:t=problem:wysokość przednutki niepewna	!
!	!	!	!	!	!	!	!	!	!	!LO:LB:g=original	!	!LO:HP:t=for	!	!	!	!	!	!	!	!	!	!
.	.	.	.	.	8qqg/	.	.	.	.	.	.	.	.	.	.	.	.	.	8qqee-/	.	8qqgg/	.
2BB-/	.	.	2d/	f	2f/	.	2BB-/	-rus	.	2B-\	-ra	.	2d\	-ra	.	2f/	-rus	.	2dd\	.	2ff\	.
!LO:TX:b:t=unisono	!	!	!	!	!	!	!	!	!LO:HP:b	!	!	!	!	!	!LO:HP:t=for	!	!	!LO:HP:t=for	!	!	!	!
(8.F\L	.	.	(8.f/L	.	(8.f/L	.	8.F\	La-	f	8.F/	La-	f	8.f\	La-	f	8.f/	La-	f	4r	.	4r	.
32G'\LL	.	.	32g/LL	.	32g/LL	.	16F\	-cry-	.	16F/	-cry-	.	16f\	-cry-	.	16f/	-cry-	.	.	.	.	.
32An'\JJJ)	.	.	32an/JJJ)	.	32an/JJJ)	.	.	.	.	.	.	.	.	.	.	.	.	.	.	.	.	.
=21	=21	=21	=21	=21	=21	=21	=21	=21	=21	=21	=21	=21	=21	=21	=21	=21	=21	=21	=21	=21	=21	=21
!	!	!	!	!	!	!	!	!	!	!	!	!	!	!	!	!	!	!	!LO:TX:a:t=1	!	!LO:LB:g=original	!
4B-'\	.	.	4b-\	.	4b-\	.	4B-\	-mo-	.	4B-\	-mo-	.	4b-\	-mo-	.	4b-\	-mo-	.	2.r	.	2.r	.
4B-'\	.	.	4b-\	.	4b-\	.	4B-\	-sa-	.	4B-\	-sa-	.	4b-\	-sa-	.	4b-\	-sa-	.	.	.	.	.
8.d\L	.	.	8.dd\L	.	8.dd\L	.	8.d\	-Di-	.	8.d\	-Di-	.	8.dd\	-Di-	.	8.dd\	-Di-	.	.	.	.	.
16c\Jk	.	.	16cc\Jk	.	16cc\Jk	.	16c\	-es-	.	16c\	-es-	.	16cc\	-es-	.	16b-\	-es-	.	.	.	.	.
=22	=22	=22	=22	=22	=22	=22	=22	=22	=22	=22	=22	=22	=22	=22	=22	=22	=22	=22	=22	=22	=22	=22
!	!	!	!	!	!	!	!	!	!	!	!	!	!	!	!	!	!	!	!LO:LB:g=original	!	!	!
4B-\	.	.	4b-\	.	4b-\	.	4B-\	-il-	.	4B-\	-il-	.	4b-\	-il-	.	4b-\	-il-	.	4r	.	4r	.
4B-\	.	.	4b-\	.	4b-\	.	4B-\	-la-	.	4B-\	-la-	.	4b-\	-la-	.	4b-\	-la-	.	4r	.	4r	.
!	!	!	!	!	!	!	!	!	!	!	!	!	!	!	!	!	!	!	!	!LO:HP:t=for	!	!LO:HP=fo
4r	.	.	8.B-/L	.	8d/L	f	4r	.	.	4r	.	.	8b-\	-qua-	.	8dd\	-qua-	.	8.b-\L	f	(8.dd\L	f
.	.	.	.	.	8e-/J	.	.	.	.	.	.	.	8cc\	-re-	.	8ee-\	-re-	.	.	.	.	.
.	.	.	16c/Jk	.	.	.	.	.	.	.	.	.	.	.	.	.	.	.	16cc\Jk	.	16ee-\Jk)	.
=23	=23	=23	=23	=23	=23	=23	=23	=23	=23	=23	=23	=23	=23	=23	=23	=23	=23	=23	=23	=23	=23	=23
!	!	!	!LO:LB:g=original	!	!	!	!	!	!	!	!	!	!	!	!	!	!	!	!	!	!	!
4BB-/	.	.	4.d/	.	4.f/	.	2.r	.	.	2.r	.	.	4.dd\	-sur-	.	4.ff\	-sur-	.	4.dd\	.	4.ff\	.
4BB-/	.	.	.	.	.	.	.	.	.	.	.	.	.	.	.	.	.	.	.	.	.	.
.	.	.	8d/L	.	8f/L	.	.	.	.	.	.	.	8dd\	-get-	.	8ff\	-get-	.	8dd\L	.	(8ff\L	.
!LO:TX:a:t=problem:niewyraźne b.c.	!	!	!	!	!	!	!	!	!	!	!	!	!	!	!	!	!	!	!	!	!	!
8E-\L	6	.	8c/	.	8e-/	.	.	.	.	.	.	.	8cc\	-et-	.	8ee-\	-et-	.	8cc\	.	8ee-\	.
8En\J	7 5	.	8B-/J	.	8d/J	.	.	.	.	.	.	.	8b-\	-fa-	.	8dd\	-fa-	.	8b-\J	.	8dd\J)	.
=24	=24	=24	=24	=24	=24	=24	=24	=24	=24	=24	=24	=24	=24	=24	=24	=24	=24	=24	=24	=24	=24	=24
*	*	*	*	*	*Xtuplet	*	*	*	*	*	*	*	*	*	*	*	*	*	*	*	*	*
!LO:LB:g=original	!	!	!	!	!	!	!	!	!	!	!	!	!	!	!	!	!	!	!LO:TUP:a	!	!LO:TUP:a	!
4F\	7 2n	.	(12An/L	.	12c/L	.	4r	.	.	4r	.	.	(12an\L	-vil-	.	(12cc\L	-vil-	.	(12a\L	.	(12cc\L	.
.	.	.	12B-/	.	12d/	.	.	.	.	.	.	.	12b-\	.	.	12dd\	.	.	12b-\	.	12dd\	.
.	.	.	12c/J)	.	12e-/J	.	.	.	.	.	.	.	12cc\J)	.	.	12ee-\J)	.	.	12cc\J)	.	12ee-\J)	.
4BB-/	.	.	4B-/	.	4d/	.	4r	.	.	4r	.	.	4b-\	-la-	.	4dd\	-la-	.	4b-\	.	4dd\	.
!LO:TX:b:t=unisono	!	!	!	!	!	!	!	!	!	!	!	!	!	!	!	!	!	!	!	!	!	!
(8.B-'\L	.	.	(8.b-\L	.	(8.b-\L	.	8.B-\	-ju-	.	8.B-\	-ju-	.	8.b-\	-ju-	.	8.b-\	-ju-	.	4r	.	4r	.
32c'\LL	.	.	32cc\LL	.	32cc\LL	.	16B-\	-di-	.	16B-\	-di-	.	16b-\	-di-	.	16b-\	-di-	.	.	.	.	.
32d'\JJJ)	.	.	32dd\JJJ)	.	32dd\JJJ)	.	.	.	.	.	.	.	.	.	.	.	.	.	.	.	.	.
=25	=25	=25	=25	=25	=25	=25	=25	=25	=25	=25	=25	=25	=25	=25	=25	=25	=25	=25	=25	=25	=25	=25
!	!	!	!	!	!	!	!	!	!	!	!	!	!LO:LB:g=original	!	!	!:g=original	!	!	!LO:TX:a:t=1	!	!LO:TX:a:t=1	!
4e-'\	.	.	4ee-\	.	4ee-'\	.	4e-\	-can-	.	4e-\	-can-	.	4ee-\	-can-	.	4ee-\	-can-	.	2.r	.	2.r	.
4e-'\	.	.	4ee-\	.	4ee-'\	.	4e-\	-dus-	.	4e-\	-dus-	.	4ee-\	-dus-	.	4ee-\	-dus-	.	.	.	.	.
8.B-'\L	.	.	8.b-`\L	.	8.b-'\L	.	8.B-\	-ho-	.	8.B-\	-ho-	.	8.b-\	-ho-	.	8.b-\	-ho-	.	.	.	.	.
16A-'\Jk	.	.	16a-`\Jk	.	16a-'\Jk	.	16A-\	-mo-	.	16Any\	-mo-	.	16a-\	-mo-	.	16a-\	-mo-	.	.	.	.	.
=26	=26	=26	=26	=26	=26	=26	=26	=26	=26	=26	=26	=26	=26	=26	=26	=26	=26	=26	=26	=26	=26	=26
!	!	!	!	!	!	!	!	!	!	!	!	!	!	!	!	!	!	!	!	!	!	!
8.G\L	.	.	8g'/L	.	8.g'/L	.	8.G\L	-re-	.	(8.G/L	-re-	.	(8.g\L	-re-	.	(8.g/L	-re-	.	4r	.	4r	.
.	.	.	16g/L	.	.	.	.	.	.	.	.	.	.	.	.	.	.	.	.	.	.	.
16F\Jk	.	.	16f'/JJ	.	16f'/Jk	.	16F\Jk	.	.	16F/Jk	.	.	16f\Jk)	.	.	16f/Jk)	.	.	.	.	.	.
!	!	!	!	!	!LO:TX:a:t=problem:mixed beam	!	!	!	!	!	!	!	!	!	!	!	!	!	!	!	!	!
4E-\	.	.	8e-'/L	.	8e-`/L	.	4E-\	-us-	.	4E-/)	-us-	.	4e-\	-us-	.	4e-/	-us-	.	8r	.	8r	.
.	.	.	(8g/	.	(8b-`\	.	.	.	.	.	.	.	.	.	.	.	.	.	8g/L	.	8b-\L	.
4r	.	.	8g/	.	8b-\	.	8G\	-Hu-	.	8B-\	-Hu-	.	4r	.	.	4r	.	.	8g/	.	8b-\	.
.	.	.	8a-/J)	.	8cc\J)	.	8A-\	-ic-	.	8c\	-ic-	.	.	.	.	.	.	.	8a-/J	.	8cc\J	.
=27	=27	=27	=27	=27	=27	=27	=27	=27	=27	=27	=27	=27	=27	=27	=27	=27	=27	=27	=27	=27	=27	=27
!	!	!	!	!	!	!	!LO:LB:g=original	!	!	!LO:LB:g=original	!	!	!	!	!	!	!	!	!	!	!	!
4E-\	7-	.	(4.b-\	.	4.dd-X\	.	4.B-\	-er-	.	4.d-X\	-er-	.	2.r	.	.	2.r	.	.	4.b-\	.	(4.dd-X\	.
4E-\	.	.	.	.	.	.	.	.	.	.	.	.	.	.	.	.	.	.	.	.	.	.
.	.	.	16cc\LL	.	(16ee-\LL	.	16c\LL	-go-	.	16e-\LL	-go-	.	.	.	.	.	.	.	16cc\LL	.	16ee-\LL	.
.	.	.	16dd\JJ)	.	16ff\JJ)	.	16d-X\JJ	.	.	16f\JJ	.	.	.	.	.	.	.	.	16dd-X\JJ	.	16ff\JJ)	.
4E-\	.	.	8cc\L	.	8ee-\L	.	8c\	-par-	.	8e-\	-par-	.	.	.	.	.	.	.	8cc\L	.	8ee-\L	.
.	.	.	8b-\J	.	8dd-\J	.	8B-\	-ce-	.	8d-\	-ce-	.	.	.	.	.	.	.	8b-\J	.	8dd-\J	.
=28	=28	=28	=28	=28	=28	=28	=28	=28	=28	=28	=28	=28	=28	=28	=28	=28	=28	=28	=28	=28	=28	=28
!	!	!	!LO:TX:a:t=problem:niewyraźny zapis artykulacji	!	!	!	!	!	!	!	!	!	!	!	!	!	!	!	!	!	!	!
4A-\	.	.	8b-\L	.	(8dd\L	.	8B-\L	-de-	.	(8d\L	-de-	.	4r	.	.	4r	.	.	8b-\L	.	8dd\L	.
.	.	.	(8a-\J	.	8cc\J)	.	8A-\J	.	.	8c\J)	.	.	.	.	.	.	.	.	8a-\J	.	8cc\J	.
4A-\	.	.	8a-\L	.	(8cc\L	.	4A-\	-us-	.	4c\	-us-	.	4r	.	.	4r	.	.	4a-\	.	4cc\	.
.	.	.	8cc\	.	(8een'\)	.	.	.	.	.	.	.	.	.	.	.	.	.	.	.	.	.
4G\	6|	.	8b-\)	.	8ee'\	.	8G\	-hu-	.	8c\	-hu-	.	8.b-\	-Hu-	.	8een\	-Hu-	.	4b-\	.	4eeX\	.
.	.	.	8a-`\J	.	8ee'\J)	.	8G\	-ic-	.	8c\	-ic-	.	.	.	.	8ee\	-ic-	.	.	.	.	.
.	.	.	.	.	.	.	.	.	.	.	.	.	16b-\	-ic-	.	.	.	.	.	.	.	.
=29	=29	=29	=29	=29	=29	=29	=29	=29	=29	=29	=29	=29	=29	=29	=29	=29	=29	=29	=29	=29	=29	=29
!	!	!	!	!	!LO:LB:g=original	!	!	!	!	!	!	!	!	!	!	!	!	!	!	!	!	!
4F\	5	.	8cc\	.	4.ff\	.	4F\	-er-	.	4c\	-er-	.	4a-\	-er-	.	4.ff\	-er-	.	4a-\	.	4ff\	.
.	.	.	4cc\	.	.	.	.	.	.	.	.	.	.	.	.	.	.	.	.	.	.	.
4F\	.	.	.	.	.	.	4F\	-go-	.	4c\	-go-	.	4a-\	-go-	.	.	.	.	4a-\	.	4.ff\	.
.	.	.	4cc\	.	16aa-\LL	.	.	.	.	.	.	.	.	.	.	8cc\	-go-	.	.	.	.	.
.	.	.	.	.	16gg\JJ	.	.	.	.	.	.	.	.	.	.	.	.	.	.	.	.	.
4A-\	6	.	.	.	8ff\L	.	8A-\	-par-	.	8c\	-par-	.	8a-\	-par-	.	8ff'\	-par-	.	4cc\	.	.	.
.	5	.	8cc\	.	8ee-X\J	.	8A-\	-ce-	.	8c\	-ce-	.	8a-\	-ce-	.	8ee-X\	-ce-	.	.	.	8ee-X\	.
=30	=30	=30	=30	=30	=30	=30	=30	=30	=30	=30	=30	=30	=30	=30	=30	=30	=30	=30	=30	=30	=30	=30
*	*	*	*tremolo	*	*	*	*	*	*	*	*	*	*	*	*	*	*	*	*	*	*	*
!	!	!	!	!	!	!	!	!	!	!	!	!	!	!	!	!	!	!	!LO:LB:g=original	!	!LO:LB:g=original	!
.	.	.	.	.	8qqee-/	.	.	.	.	.	.	.	.	.	.	.	.	.	.	.	.	.
4B-\	.	.	16f/LL	.	4dd\	.	4B-\	-De-	.	4B-\	-De-	.	4f\	-De-	.	4dd\	-De-	.	8f/L	.	8dd\L	.
.	.	.	16f/	.	.	.	.	.	.	.	.	.	.	.	.	.	.	.	.	.	.	.
.	.	.	16f/	.	.	.	.	.	.	.	.	.	.	.	.	.	.	.	8b-/J	.	8dd\	.
.	.	.	16f/JJ	.	.	.	.	.	.	.	.	.	.	.	.	.	.	.	.	.	.	.
4r	.	.	16b-'\LL	.	8r	.	4BB-/	-us-	.	4B-\	-us-	.	4f\	-us-	.	4dd\	-us-	.	(8dd\L	.	(8ff\	.
.	.	.	16b-'\	.	.	.	.	.	.	.	.	.	.	.	.	.	.	.	.	.	.	.
.	.	.	16b-'\	.	16dd\LL	.	.	.	.	.	.	.	.	.	.	.	.	.	8b-\)	.	8dd\)	.
.	.	.	16b-'\JJ	.	16ee-\JJ	.	.	.	.	.	.	.	.	.	.	.	.	.	.	.	.	.
.	.	.	.	.	16qqgg/	.	.	.	.	.	.	.	.	.	.	.	.	.	.	.	.	.
4A-\	4 2	.	16b-'\LL	.	8ff\L	.	8A-\	-pi-	.	8B-\	-pi-	.	8f\	-pi-	.	8dd\	-pi-	.	(8dd\	.	(8ff\	.
.	.	.	16b-'\	.	.	.	.	.	.	.	.	.	.	.	.	.	.	.	.	.	.	.
.	.	.	16b-'\	.	16ee-\L	.	8A-\	-e-	.	8B-\	-e-	.	8f\	-e-	.	8dd\	-e-	.	8b-\J)	.	8dd\J)	.
.	.	.	16b-'\JJ	.	16dd\JJ	.	.	.	.	.	.	.	.	.	.	.	.	.	.	.	.	.
=31	=31	=31	=31	=31	=31	=31	=31	=31	=31	=31	=31	=31	=31	=31	=31	=31	=31	=31	=31	=31	=31	=31
4G\	6	.	16b-'\LL	.	(8ee-\L	.	2G\	-Je-	.	2B-\	-Je-	.	2g\	-Je-	.	2ee-\	-Je-	.	8r	.	8r	.
.	.	.	16b-'\	.	.	.	.	.	.	.	.	.	.	.	.	.	.	.	.	.	.	.
.	.	.	16b-'\	.	8b-\J)	.	.	.	.	.	.	.	.	.	.	.	.	.	8g/	.	8ee-\	.
.	.	.	16b-'\	.	.	.	.	.	.	.	.	.	.	.	.	.	.	.	.	.	.	.
4r	.	.	16b-'\	.	8r	.	.	.	.	.	.	.	.	.	.	.	.	.	8b-\L	.	(8gg\L	.
.	.	.	16b-'\	.	.	.	.	.	.	.	.	.	.	.	.	.	.	.	.	.	.	.
.	.	.	16b-'\	.	16ee-\LL	.	.	.	.	.	.	.	.	.	.	.	.	.	8g\	.	8ee-\)	.
.	.	.	16b-'\JJ	.	16ff\JJ	.	.	.	.	.	.	.	.	.	.	.	.	.	.	.	.	.
.	.	.	.	.	16qqaa-/	.	.	.	.	.	.	.	.	.	.	.	.	.	.	.	.	.
!	!	!	!	!	!	!	!	!	!	!LO:N:vis=4.	!	!	!	!	!	!	!	!	!	!	!	!
4E-\	.	.	16b-'\LL	.	8gg\L	.	4E-\	-su-	.	4B-\	-su-	.	4g\	-su-	.	4ee-\	-su-	.	8b-\	.	(8gg\	.
.	.	.	16b-'\	.	.	.	.	.	.	.	.	.	.	.	.	.	.	.	.	.	.	.
.	.	.	16b-'\	.	(16ff\L	.	.	.	.	.	.	.	.	.	.	.	.	.	8g\J	.	8ee-\J)	.
.	.	.	16b-'\JJ	.	16ee-\JJ)	.	.	.	.	.	.	.	.	.	.	.	.	.	.	.	.	.
=32	=32	=32	=32	=32	=32	=32	=32	=32	=32	=32	=32	=32	=32	=32	=32	=32	=32	=32	=32	=32	=32	=32
!LO:LB:g=original	!	!	!	!	!	!	!	!	!	!	!	!	!LO:LB:g=original	!	!	!	!	!	!	!	!	!
4D\	6	.	16b-'\LL	.	(8ff\L	.	2D/	-pi-	.	2B-\	-pi-	.	2b-\	-pi-	.	2ff\	-pi-	.	8r	.	8r	.
.	.	.	16b-'\	.	.	.	.	.	.	.	.	.	.	.	.	.	.	.	.	.	.	.
!	!	!	!	!	!	!	!	!	!	!	!	!	!	!	!	!	!	!	!	!	!LO:TX:a:t=SIC:s=g	!
.	.	.	16b-'\	.	8b-\J)	.	.	.	.	.	.	.	.	.	.	.	.	.	8b-\	.	8aa-\	.
.	.	.	16b-'\JJ	.	.	.	.	.	.	.	.	.	.	.	.	.	.	.	.	.	.	.
4r	.	.	8b-\L	.	8r	.	.	.	.	.	.	.	.	.	.	.	.	.	8ff\L	.	(8aa-\L	.
.	.	.	16dd\L	.	24ee-\LL	.	.	.	.	.	.	.	.	.	.	.	.	.	8dd\	.	8ff\	.
.	.	.	.	.	24ff\	.	.	.	.	.	.	.	.	.	.	.	.	.	.	.	.	.
.	.	.	16ee-\JJ	.	.	.	.	.	.	.	.	.	.	.	.	.	.	.	.	.	.	.
.	.	.	.	.	24gg\JJ	.	.	.	.	.	.	.	.	.	.	.	.	.	.	.	.	.
.	.	.	16qqgg/	.	16qqbb-/	.	.	.	.	.	.	.	.	.	.	.	.	.	.	.	.	.
4BB-/	7	.	8ff\L	.	8aa-\L	.	4BB-/	-e-	.	4B-\	-e-	.	4a-\	-e-	.	4ff\	-e-	.	8ff\	.	8aa-\	.
.	.	.	16ee-\L	.	(16gg\L	.	.	.	.	.	.	.	.	.	.	.	.	.	8dd\J	.	8ff\J)	.
.	.	.	16dd\JJ	.	16ff\JJ)	.	.	.	.	.	.	.	.	.	.	.	.	.	.	.	.	.
=33	=33	=33	=33	=33	=33	=33	=33	=33	=33	=33	=33	=33	=33	=33	=33	=33	=33	=33	=33	=33	=33	=33
!	!	!	!	!	!	!	!	!	!	!LO:LB:g=original	!	!	!	!	!	!LO:LB:g=original	!	!	!	!	!	!
4E-\	.	.	(8ee-\L	.	(8gg\L	.	(4E-\	-je-	.	2B-\	-je-	.	(4g\	-je-	.	(4ee-\	-je-	.	4ee-\	.	4gg\	.
.	.	.	8g\	.	8bb-\)	.	.	.	.	.	.	.	.	.	.	.	.	.	.	.	.	.
4F\	6	.	8a-\)	.	(8dd\	.	4F\	.	.	.	.	.	4a-\	.	.	4dd\	.	.	4a-\	.	4dd\	.
.	.	.	(8dd\	.	8ff\)	.	.	.	.	.	.	.	.	.	.	.	.	.	.	.	.	.
!	!	!	!	!	!	!	!	!	!	!	!	!	!	!	!	!	!	!	!	!	!	!
4G\	6	.	8ee-\	.	(8ee-\	.	4G\)	-su-	.	4B-\	-su-	.	4b-\)	-su-	.	4ee-\)	-su-	.	4g/	.	4ee-\	.
.	.	.	8g\J)	.	8b-\J)	.	.	.	.	.	.	.	.	.	.	.	.	.	.	.	.	.
=34	=34	=34	=34	=34	=34	=34	=34	=34	=34	=34	=34	=34	=34	=34	=34	=34	=34	=34	=34	=34	=34	=34
!	!	!	!	!	!	!	!LO:LB:g=original	!	!	!	!	!	!	!	!	!	!	!	!	!	!	!
4A-\	5	.	8.a-/L	.	8.cc\L	.	8.A-\	-Je-	.	8.c\	-Je-	.	8.a-\	-Je-	.	8.cc\	-Je-	.	4a-\	.	8.cc\L	.
.	6	.	16f/Jk	.	16a-\Jk	.	16A-\	-su-	.	16c\	-su-	.	16f\	-su-	.	16a-\	-su-	.	.	.	16ff\Jk	.
4B-\	6 4	.	4e-/	.	4g/	.	4B-\	-do-	.	4B-\	-do-	.	4e-\	-do-	.	4g/	-do-	.	4g\	.	4ee-\	.
4BB-/	5 3	.	4d/	.	4f/	.	4BB-/	-mi-	.	4B-\	-mi-	.	4d\	-mi-	.	4f/	-mi-	.	4f\	.	4dd\	.
=35	=35	=35	=35	=35	=35	=35	=35	=35	=35	=35	=35	=35	=35	=35	=35	=35	=35	=35	=35	=35	=35	=35
!	!	!	!LO:LB:g=original	!	!	!	!	!	!	!	!	!	!	!	!	!	!	!	!	!	!	!
4E-\	.	.	4f/	.	4e-/	.	4E-\	-ne-	.	4B-\	-ne-	.	4c\	-ne-	.	4e-/	-ne-	.	4g/	.	4ee-\	.
4r	.	.	4r	.	4r	.	4E-\	-do-	.	4e-\	-do-	.	4g\	-do-	.	4b-\	-do-	.	4r	.	4r	.
4E-\	7-	.	4g/	.	4b-\	.	4E-\	-na-	.	4e-\	-na-	.	4g\	-na-	.	4b-\	-na-	.	4b-\	.	4gg\	.
=36	=36	=36	=36	=36	=36	=36	=36	=36	=36	=36	=36	=36	=36	=36	=36	=36	=36	=36	=36	=36	=36	=36
*	*	*	*Xtremolo	*	*	*	*	*	*	*	*	*	*	*	*	*	*	*	*	*	*	*
(<2.E-\	6 4	.	(8a-/L	.	(8cc/L	.	2E-\	-do-	.	2e-\	-do-	.	(4a-\	-e-	.	(4cc\	-do-	.	4cc\	.	4aa-\	.
.	5 3	.	8e-/)	.	8e-/)	.	.	.	.	.	.	.	.	.	.	.	.	.	.	.	.	.
.	7	.	(8a-/	.	(8dd-X/	.	.	.	.	.	.	.	4b-\	.	.	4dd-X\	.	.	4dd-X\	.	4bb-\	.
.	6 5	.	8e-/)	.	8e-/)	.	.	.	.	.	.	.	.	.	.	.	.	.	.	.	.	.
.	.	.	(8a-/	.	(8b-/	.	4E-\	-na-	.	4e-\	-na-	.	4g\)	-is-	.	4b-\)	-na-	.	4b-\	.	4gg\	.
.	.	.	8e-/J)	.	8e-/J)	.	.	.	.	.	.	.	.	.	.	.	.	.	.	.	.	.
=37	=37	=37	=37	=37	=37	=37	=37	=37	=37	=37	=37	=37	=37	=37	=37	=37	=37	=37	=37	=37	=37	=37
(<2.E-\)	6 4	.	(8a-/L	.	8cc/L	.	2E-\	-e-	.	2e-\	-e-	.	(4a-\	-e-	.	(4cc\	-e-	.	4cc\	.	4aa-\	.
.	5 3	.	8e-/	.	8e-/	.	.	.	.	.	.	.	.	.	.	.	.	.	.	.	.	.
.	7 6	.	8a-/	.	8dd-X/	.	.	.	.	.	.	.	4b-\	.	.	4dd-X\	.	.	4dd-X\	.	4bb-\	.
.	6	.	8e-/	.	8e-/	.	.	.	.	.	.	.	.	.	.	.	.	.	.	.	.	.
.	.	.	8a-/	.	8b-/	.	4E-\	-is-	.	4e-\	-is-	.	4g\)	-is-	.	4b-\)	-is-	.	4b-\	.	4gg\	.
.	.	.	8e-/J)	.	8e-/J	.	.	.	.	.	.	.	.	.	.	.	.	.	.	.	.	.
=38	=38	=38	=38	=38	=38	=38	=38	=38	=38	=38	=38	=38	=38	=38	=38	=38	=38	=38	=38	=38	=38	=38
!	!	!	!	!	!LO:L:g=original	!	!	!	!	!	!	!	!	!	!	!	!	!	!LO:LB:g=original	!	!LO:LB:g=original	!
*	*	*	*	*	*	*	*	*	*	*	*	*	*	*	*	*	*	*	*	*	*2\right	*
(<2.E-\)	6 4	.	8a-/L	.	(8cc/L	.	2E-\	-Re-	.	2e-\	-Re-	.	2a-\	-Re-	.	2cc\	-Re-	.	2cc\	.	2aa-\	.
.	7n 2	.	8e-/	.	8e-/	.	.	.	.	.	.	.	.	.	.	.	.	.	.	.	.	.
.	.	.	8a-/	.	8cc/	.	.	.	.	.	.	.	.	.	.	.	.	.	.	.	.	.
.	.	.	8e-/	.	8e-/	.	.	.	.	.	.	.	.	.	.	.	.	.	.	.	.	.
.	.	.	8a-/	.	8dd/	.	4E-\	-qui-	.	4B-\	-qui-	.	4f\	-qui-	.	4ddn\	-qui-	.	4ddn\	.	4ff\	.
.	.	.	8e-/J	.	8e-/J)	.	.	.	.	.	.	.	.	.	.	.	.	.	.	.	.	.
=39	=39	=39	=39	=39	=39	=39	=39	=39	=39	=39	=39	=39	=39	=39	=39	=39	=39	=39	=39	=39	=39	=39
!	!	!	!	!	!	!	!	!	!	!	!	!	!	!	!	!	!	!	!	!	!	!LO:HP=fo
(<2.E-\)	6|	.	2.g/	.	2.e-/ 2.ee-	.	2.E-\	-em-	.	2.B-\	-em-	.	2.g\	-em-	.	2ee-\	-em-	.	2.ee-\	.	2.gg\	f
.	.	.	.	.	.	.	.	.	.	.	.	.	.	.	.	4r	.	.	.	.	.	.
=40	=40	=40	=40	=40	=40	=40	=40	=40	=40	=40	=40	=40	=40	=40	=40	=40	=40	=40	=40	=40	=40	=40
2.BB-/)	.	.	2.d/ 2.a-	.	2.B-/ 2.f 2.dd	.	2.BB-/	-A-	.	2.B-\	-A-	.	2.a-\	-A	p	2.dd\	-A-	.	2.dd\	.	2.ff\	.
=41	=41	=41	=41	=41	=41	=41	=41	=41	=41	=41	=41	=41	=41	=41	=41	=41	=41	=41	=41	=41	=41	=41
2.EE-/	.	.	2.B-/ 2.g	.	2.B-/ 2.g 2.ee-	.	2.E-\	-men	.	2.B-\	-men	.	2.g\	-men	.	2.ee-\	-men	.	2.ee-\	.	2.ff\	.
==	==	==	==	==	==	==	==	==	==	==	==	==	==	==	==	==	==	==	==	==	==	==
*-	*-	*-	*-	*-	*-	*-	*-	*-	*-	*-	*-	*-	*-	*-	*-	*-	*-	*-	*-	*-	*-	*-
!!!system-decoration: s1,s2,s3[(s4,s5,s6,s7)]s8,s9
!!!RDF**kern: >= above
!!!RDF**kern: <= below
!!!ENC: Anna Matuszewska
!!!END: 2020-04-30
